src/lib/packages/icons/src/assets/line/tumbler.svg

<svg xmlns="http://www.w3.org/2000/svg" width="24" height="24" fill="none"><path fill="currentColor" d="M17 16.71h-1.59c-.73 0-1.07-.17-1.07-1.12v-3.9h2.53c.41 0 .75-.34.75-.75V7.58c0-.41-.34-.75-.75-.75h-2.53V3c0-.41-.34-.75-.75-.75h-2.81c-.4 0-.72.31-.75.7-.09 1.34-.62 3.7-3.22 4.37a.75.75 0 0 0-.56.73v2.89c0 .41.34.75.75.75h1.52v4.59c0 3.43 2.05 5.47 5.48 5.47h3.01c.41 0 .75-.34.75-.75v-3.54c0-.41-.34-.75-.75-.75H17Zm-.75 3.54h-2.26c-1.81 0-3.98-.69-3.98-3.97v-5.34c0-.41-.34-.75-.75-.75H7.74V8.6c2.04-.74 3.35-2.46 3.7-4.85h1.39v3.83c0 .41.34.75.75.75h2.53v1.86h-2.53c-.41 0-.75.34-.75.75v4.65c0 1.69.91 2.62 2.57 2.62h.84v2.04h.01Z"/></svg>

<svg width="24" height="24" viewBox="0 0 24 24" fill="none" xmlns="http://www.w3.org/2000/svg">
<path d="M17 16.71H15.41C14.68 16.71 14.34 16.54 14.34 15.59V11.69H16.87C17.28 11.69 17.62 11.35 17.62 10.94V7.58C17.62 7.17 17.28 6.83 16.87 6.83H14.34V3C14.34 2.59 14 2.25 13.59 2.25H10.78C10.38 2.25 10.06 2.56 10.03 2.95C9.94 4.29 9.41 6.65001 6.81 7.32001C6.48 7.41001 6.25 7.7 6.25 8.05V10.94C6.25 11.35 6.59 11.69 7 11.69H8.51999V16.28C8.51999 19.71 10.57 21.75 14 21.75H17.01C17.42 21.75 17.76 21.41 17.76 21V17.46C17.76 17.05 17.42 16.71 17.01 16.71H17ZM16.25 20.25H13.99C12.18 20.25 10.01 19.56 10.01 16.28V10.94C10.01 10.53 9.67001 10.19 9.26001 10.19H7.73999V8.60001C9.77999 7.86001 11.09 6.14 11.44 3.75H12.83V7.58C12.83 7.99 13.17 8.33 13.58 8.33H16.11V10.19H13.58C13.17 10.19 12.83 10.53 12.83 10.94V15.59C12.83 17.28 13.74 18.21 15.4 18.21H16.24V20.25H16.25Z" fill="currentColor"/>
</svg>
